X: 9
T:Earl of Angus and Arran
M:C
L:1/8
C:William Marshall
S:Book 26
R:Strathspey
K:G
D|"G"G<G d2 "G/Em"B>AG>B|"Am"c>E A>G "D"F>DE>F|G<G d2 B>AG>B|1"Am"c<E "D
"A>F "G"G2:||!
|2 "Am"e<E "D"A>F "G"G2||d|"G"B>dG>d B>dG>f| g>G B>G "D7"F<AA>c|"G"B>dG>
d B>dg>b|!
"A"a>gf>e "D"d3 B|"Am"c<e A>c "G"B<d G>B|"Am"A>Bc>B "D"A>GF>D|
"G"Gc "G"B<d "Am"c>c'|"G"d<g "D"f>a "G"g2-g|
|
% <A name="D1X010">
